X: 22512
T: Lady Elizabeth Cole's Reel
R: jig
M: 6/8
K: Bminor
a|:b2f g2e|f2d e2c|d2B c2B|^ABc F2a|
bfb geg|fdf edc|def edc|1 B3 B2a:|2 B3 B2d/e/||
|:fdB fdB|gfg e2c/d/|ecA ecA|fef d2B/c/|
dBG dBG|ede c2B|^ABc F2A|1 BcB B2d/e/:|2 BcB B2a||

